X: 34
T:Jack's Alive. WCa.34
M:C
Q:180
S:Wm. Calvert MS, 1812, Leyburn, Yorks.
R:reel
O:England
A:North Yorkshire
Z:vmp.Chris Partington, May 2003
K:G
G2BG ABc2|dBcA BGFD|G2BG ABc2|dBAFG2G,2::!
gg ((3gbg) ff ((3faf)|ee ((3efg) afed|\
gg ((3gag) ff ((3fgf)|((3efg) ((3agf) g2G2|!
gg ((3gbg) ff ((3faf)|ee ((3efg) afed|\
ggBB eeAA|dBAFG2G,2||
